images/sitefooterlogo.svg

<svg width="158" height="26" viewBox="0 0 158 26" fill="none" xmlns="http://www.w3.org/2000/svg">
<g id="Group 6">
<g id="manage 2">
<path id="manage" fill-rule="evenodd" clip-rule="evenodd" d="M128.231 25.7192C129.531 25.7192 130.693 25.5669 131.718 25.2622C132.743 24.9575 133.604 24.5333 134.302 23.9897C134.999 23.446 135.577 22.7799 136.036 21.9913C136.495 21.2027 136.826 20.3424 137.029 19.4104C137.231 18.4784 137.333 17.4568 137.333 16.3456V0.286765H133.238V2.16866H133.166C132.427 1.46369 131.578 0.926011 130.618 0.555607C129.659 0.185202 128.661 0 127.624 0C125.991 0 124.524 0.388327 123.225 1.16498C121.926 1.94164 120.916 3.01999 120.194 4.40005C119.473 5.7801 119.113 7.33042 119.113 9.05101C119.113 10.7955 119.491 12.3428 120.248 13.693C121.005 15.0432 122.045 16.0797 123.368 16.8026C124.691 17.5255 126.181 17.8869 127.838 17.8869C130.055 17.8869 131.861 17.1581 133.256 15.7004H133.327V17.6002C133.327 18.8667 132.862 19.9182 131.933 20.7546C131.003 21.591 129.692 22.0092 127.999 22.0092C126.843 22.0092 125.827 21.8658 124.95 21.579C124.074 21.2923 123.064 20.8442 121.92 20.2348L120.954 23.8552C121.956 24.4527 123.082 24.9127 124.334 25.2353C125.585 25.5579 126.885 25.7192 128.231 25.7192ZM43.0385 9.26608V18.2096H38.9439V8.87178C38.9439 5.4545 37.7579 3.74586 35.3858 3.74586C34.1342 3.74586 33.1061 4.23874 32.3015 5.22449C31.4969 6.21025 31.0946 7.55744 31.0946 9.26608V18.1916H27V0.286765H31.0946V2.76011H31.1482C31.8753 1.87592 32.7246 1.19784 33.6961 0.725873C34.6676 0.253906 35.6778 0.0179228 36.7268 0.0179228C39.2181 0.0179228 40.9942 1.00965 42.0551 2.99311H42.1266C42.8776 2.02528 43.8014 1.28745 44.898 0.779642C45.9947 0.271829 47.2046 0.0179228 48.5277 0.0179228C50.5422 0.0179228 52.0918 0.66613 53.1766 1.96255C54.2613 3.25896 54.8036 5.21553 54.8036 7.83226V18.2096H50.7091V8.87178C50.7091 5.4545 49.5409 3.74586 47.2046 3.74586C46.0126 3.74586 45.0202 4.23874 44.2275 5.22449C43.4348 6.21025 43.0385 7.55744 43.0385 9.26608ZM71.5693 15.79C70.2104 17.5823 68.3151 18.4784 65.8834 18.4784C64.6556 18.4784 63.5083 18.2603 62.4415 17.8242C61.3746 17.3881 60.4597 16.7757 59.6968 15.9871C58.934 15.1985 58.332 14.2307 57.891 13.0836C57.4499 11.9366 57.2294 10.682 57.2294 9.31985C57.2294 7.99357 57.4499 6.75092 57.891 5.59191C58.332 4.4329 58.934 3.44715 59.6968 2.63465C60.4597 1.82215 61.3716 1.1829 62.4325 0.716912C63.4934 0.250919 64.6318 0.0179228 65.8476 0.0179228C68.172 0.0179228 70.0137 0.824449 71.3726 2.4375H71.4441V0.286765H75.5387V18.1916H71.6229V15.79H71.5693ZM66.5271 14.7505C65.0132 14.7505 63.7795 14.2456 62.8259 13.236C61.8723 12.2263 61.3955 10.9269 61.3955 9.33778C61.3955 7.65303 61.8872 6.29986 62.8706 5.27826C63.854 4.25666 65.0788 3.74586 66.545 3.74586C67.9992 3.74586 69.2061 4.28056 70.1657 5.34995C71.1253 6.41935 71.605 7.74862 71.605 9.33778C71.605 10.9269 71.1133 12.2263 70.1299 13.236C69.1465 14.2456 67.9456 14.7505 66.5271 14.7505ZM95.8803 7.65303V18.2096H91.7858V8.71048C91.7858 7.77849 91.7023 6.98989 91.5355 6.34467C91.3686 5.69945 91.1123 5.18865 90.7666 4.81227C90.4209 4.43589 90.0186 4.16406 89.5597 3.99678C89.1008 3.8295 88.5495 3.74586 87.9058 3.74586C86.4992 3.74586 85.3757 4.2238 84.5354 5.17969C83.695 6.13557 83.2748 7.47381 83.2748 9.19439V18.1916H79.1803V0.286765H83.2748V2.74219H83.3285C84.0794 1.858 84.9734 1.1829 86.0105 0.716912C87.0475 0.250919 88.1501 0.0179228 89.3183 0.0179228C91.3686 0.0179228 92.9748 0.642233 94.137 1.89085C95.2992 3.13948 95.8803 5.0602 95.8803 7.65303ZM106.942 18.4784C109.374 18.4784 111.269 17.5823 112.628 15.79H112.682V18.1916H116.597V0.286765H112.503V2.4375H112.431C111.073 0.824449 109.231 0.0179228 106.906 0.0179228C105.691 0.0179228 104.552 0.250919 103.491 0.716912C102.43 1.1829 101.519 1.82215 100.756 2.63465C99.9928 3.44715 99.3908 4.4329 98.9498 5.59191C98.5087 6.75092 98.2882 7.99357 98.2882 9.31985C98.2882 10.682 98.5087 11.9366 98.9498 13.0836C99.3908 14.2307 99.9928 15.1985 100.756 15.9871C101.519 16.7757 102.433 17.3881 103.5 17.8242C104.567 18.2603 105.714 18.4784 106.942 18.4784ZM103.885 13.236C104.838 14.2456 106.072 14.7505 107.586 14.7505C109.004 14.7505 110.205 14.2456 111.189 13.236C112.172 12.2263 112.664 10.9269 112.664 9.33778C112.664 7.74862 112.184 6.41935 111.224 5.34995C110.265 4.28056 109.058 3.74586 107.604 3.74586C106.138 3.74586 104.913 4.25666 103.929 5.27826C102.946 6.29986 102.454 7.65303 102.454 9.33778C102.454 10.9269 102.931 12.2263 103.885 13.236ZM124.718 12.6983C125.678 13.6363 126.896 14.1052 128.375 14.1052C129.865 14.1052 131.077 13.6124 132.013 12.6266C132.949 11.6409 133.417 10.3892 133.417 8.87178C133.417 7.36627 132.937 6.14154 131.977 5.19761C131.018 4.25368 129.817 3.78171 128.375 3.78171C126.861 3.78171 125.633 4.25965 124.691 5.21553C123.75 6.17142 123.279 7.40809 123.279 8.92555C123.279 10.5028 123.758 11.7603 124.718 12.6983ZM149.038 18.4784C150.707 18.4784 152.176 18.1737 153.446 17.5643C154.715 16.955 155.755 16.1305 156.566 15.091L153.705 12.6356C152.584 14.0455 151.1 14.7505 149.253 14.7505C147.941 14.7505 146.83 14.386 145.918 13.6572C145.006 12.9283 144.419 11.9306 144.157 10.6641H157.174C157.245 10.2339 157.281 9.69026 157.281 9.03309C157.281 7.30055 156.929 5.75322 156.226 4.39108C155.523 3.02895 154.509 1.95956 153.186 1.1829C151.863 0.40625 150.337 0.0179228 148.609 0.0179228C147.381 0.0179228 146.231 0.241958 145.158 0.690028C144.085 1.1381 143.161 1.76241 142.387 2.56296C141.612 3.36351 141.004 4.33732 140.563 5.48438C140.122 6.63143 139.901 7.88006 139.901 9.23024C139.901 11.0584 140.301 12.6804 141.099 14.0963C141.898 15.5122 142.989 16.5965 144.371 17.3493C145.754 18.102 147.31 18.4784 149.038 18.4784ZM144.228 7.34835H153.168C152.906 6.23713 152.402 5.35892 151.657 4.71369C150.912 4.06847 149.968 3.74586 148.823 3.74586C147.691 3.74586 146.714 4.05951 145.891 4.68681C145.069 5.31411 144.514 6.20129 144.228 7.34835Z" fill="white"/>
</g>
<g id="Group 5">
<g id="Group 4">
<path id="Combined Shape" fill-rule="evenodd" clip-rule="evenodd" d="M5.91964 3.02521C5.91964 4.69599 4.59449 6.05042 2.95982 6.05042C1.32516 6.05042 0 4.69599 0 3.02521C0 1.35443 1.32516 0 2.95982 0C4.59449 0 5.91964 1.35443 5.91964 3.02521ZM5.91964 13.916C5.91964 15.5867 4.59449 16.9412 2.95982 16.9412C1.32516 16.9412 0 15.5867 0 13.916C0 12.2452 1.32516 10.8908 2.95982 10.8908C4.59449 10.8908 5.91964 12.2452 5.91964 13.916ZM13.6152 6.05042C15.2498 6.05042 16.575 4.69599 16.575 3.02521C16.575 1.35443 15.2498 0 13.6152 0C11.9805 0 10.6554 1.35443 10.6554 3.02521C10.6554 4.69599 11.9805 6.05042 13.6152 6.05042Z" fill="#F3603C"/>
<ellipse id="Oval Copy 3" opacity="0.5" cx="13.6151" cy="14.0369" rx="2.95982" ry="3.02521" fill="#F3603C"/>
</g>
</g>
</g>
</svg>

<svg xmlns="http://www.w3.org/2000/svg" width="158" height="26" fill="none"><path fill="#fff" fill-rule="evenodd" d="M128.231 25.72c1.3 0 2.462-.153 3.487-.458 1.025-.305 1.886-.729 2.584-1.272a6.921 6.921 0 0 0 1.734-1.999 8.83 8.83 0 0 0 .993-2.58c.202-.933.304-1.954.304-3.065V.286h-4.095V2.17h-.072a7.637 7.637 0 0 0-2.548-1.613A8.239 8.239 0 0 0 127.624 0c-1.633 0-3.1.388-4.399 1.165s-2.309 1.855-3.031 3.235c-.721 1.38-1.081 2.93-1.081 4.651 0 1.745.378 3.292 1.135 4.642.757 1.35 1.797 2.387 3.12 3.11 1.323.723 2.813 1.084 4.47 1.084 2.217 0 4.023-.729 5.418-2.187h.071v1.9c0 1.267-.465 2.318-1.394 3.155-.93.836-2.241 1.254-3.934 1.254-1.156 0-2.172-.143-3.049-.43-.876-.287-1.886-.735-3.03-1.344l-.966 3.62c1.002.598 2.128 1.058 3.38 1.38a15.55 15.55 0 0 0 3.897.484ZM43.039 9.265v8.944h-4.095V8.872c0-3.417-1.186-5.126-3.558-5.126-1.252 0-2.28.493-3.085 1.478-.804.986-1.206 2.333-1.206 4.042v8.926H27V.287h4.095V2.76h.053A7.553 7.553 0 0 1 33.696.726a6.855 6.855 0 0 1 3.03-.708c2.492 0 4.268.992 5.33 2.975h.07A7.399 7.399 0 0 1 44.899.78c1.097-.508 2.307-.762 3.63-.762 2.014 0 3.564.648 4.649 1.945 1.084 1.296 1.627 3.253 1.627 5.87V18.21h-4.095V8.872c0-3.417-1.168-5.126-3.504-5.126-1.192 0-2.185.493-2.977 1.478-.793.986-1.19 2.333-1.19 4.042Zm28.53 6.524c-1.359 1.792-3.254 2.688-5.686 2.688a9.008 9.008 0 0 1-3.441-.654 7.955 7.955 0 0 1-2.745-1.837c-.763-.789-1.365-1.756-1.806-2.903-.441-1.147-.662-2.402-.662-3.764 0-1.326.22-2.57.662-3.728.441-1.16 1.043-2.145 1.806-2.957A8.265 8.265 0 0 1 62.432.717a8.397 8.397 0 0 1 3.416-.7c2.324 0 4.166.807 5.525 2.42h.071V.288h4.095v17.905h-3.916V15.79h-.054Zm-5.042-1.04c-1.514 0-2.748-.504-3.701-1.514-.954-1.01-1.43-2.31-1.43-3.898 0-1.685.491-3.038 1.475-4.06.983-1.021 2.208-1.532 3.674-1.532 1.454 0 2.661.535 3.62 1.604.96 1.07 1.44 2.399 1.44 3.988s-.492 2.888-1.475 3.898c-.983 1.01-2.184 1.514-3.603 1.514ZM95.88 7.654V18.21h-4.094v-9.5c0-.932-.084-1.72-.25-2.365-.167-.646-.424-1.156-.77-1.533a3.033 3.033 0 0 0-1.206-.815c-.46-.167-1.01-.251-1.654-.251-1.407 0-2.53.478-3.37 1.434-.841.956-1.261 2.294-1.261 4.014v8.998H79.18V.287h4.095v2.455h.053A7.532 7.532 0 0 1 86.01.717a7.978 7.978 0 0 1 3.308-.7c2.05 0 3.657.625 4.819 1.874 1.162 1.248 1.743 3.17 1.743 5.762Zm11.062 10.825c2.432 0 4.327-.896 5.686-2.688h.054v2.402h3.915V.287h-4.094v2.15h-.072c-1.358-1.613-3.2-2.42-5.525-2.42a8.4 8.4 0 0 0-6.15 2.618c-.763.812-1.365 1.798-1.806 2.957-.441 1.159-.662 2.402-.662 3.728 0 1.362.22 2.617.662 3.764.44 1.147 1.043 2.114 1.806 2.903a7.952 7.952 0 0 0 2.744 1.837 9.008 9.008 0 0 0 3.442.654Zm-3.057-5.242c.953 1.01 2.187 1.514 3.701 1.514 1.418 0 2.619-.504 3.603-1.514.983-1.01 1.475-2.31 1.475-3.898 0-1.59-.48-2.919-1.44-3.988-.959-1.07-2.166-1.604-3.62-1.604-1.466 0-2.691.51-3.675 1.532-.983 1.022-1.475 2.375-1.475 4.06 0 1.589.477 2.888 1.431 3.898Zm20.833-.538c.96.938 2.178 1.407 3.657 1.407 1.49 0 2.702-.493 3.638-1.478.936-.986 1.404-2.238 1.404-3.755 0-1.506-.48-2.73-1.44-3.674-.959-.944-2.16-1.416-3.602-1.416-1.514 0-2.742.478-3.684 1.434-.941.955-1.412 2.192-1.412 3.71 0 1.577.479 2.834 1.439 3.772Zm24.32 5.78c1.669 0 3.138-.304 4.408-.914 1.269-.609 2.309-1.433 3.12-2.473l-2.861-2.455c-1.121 1.41-2.605 2.115-4.452 2.115-1.312 0-2.423-.365-3.335-1.094-.912-.729-1.499-1.726-1.761-2.993h13.017c.071-.43.107-.974.107-1.63 0-1.733-.352-3.28-1.055-4.643a7.796 7.796 0 0 0-3.04-3.208c-1.323-.777-2.849-1.165-4.577-1.165a8.864 8.864 0 0 0-3.451.672 8.2 8.2 0 0 0-2.771 1.873c-.775.8-1.383 1.774-1.824 2.921-.441 1.147-.662 2.396-.662 3.746 0 1.828.4 3.45 1.198 4.866.799 1.416 1.89 2.5 3.272 3.253 1.383.753 2.939 1.13 4.667 1.13Zm-4.81-11.13h8.94c-.262-1.11-.766-1.99-1.511-2.634-.745-.646-1.689-.968-2.834-.968-1.132 0-2.109.314-2.932.94-.822.628-1.377 1.515-1.663 2.662Z" clip-rule="evenodd"/><g fill="#F3603C"><path fill-rule="evenodd" d="M5.92 3.025c0 1.671-1.326 3.025-2.96 3.025C1.325 6.05 0 4.696 0 3.025 0 1.355 1.325 0 2.96 0c1.634 0 2.96 1.354 2.96 3.025Zm0 10.891c0 1.67-1.326 3.025-2.96 3.025-1.635 0-2.96-1.354-2.96-3.025 0-1.67 1.325-3.025 2.96-3.025 1.634 0 2.96 1.354 2.96 3.025Zm7.695-7.866c1.635 0 2.96-1.354 2.96-3.025 0-1.67-1.325-3.025-2.96-3.025s-2.96 1.354-2.96 3.025c0 1.671 1.325 3.025 2.96 3.025Z" clip-rule="evenodd"/><ellipse cx="13.615" cy="14.037" opacity=".5" rx="2.96" ry="3.025"/></g></svg>
